src/pos-icons/trackpad-lock.svg

<svg height="24" viewBox="0 0 24 24" width="24" xmlns="http://www.w3.org/2000/svg"><path d="m3 1c-1.11 0-2 .89-2 2v14c0 1.11.89 2 2 2h11v-2h-2v-4h4.68c.82-.65 1.79-1 2.82-1 .5 0 1 .09 1.5.26v-9.26c0-1.11-.89-2-2-2zm0 2h16v8h-16zm0 10h7v4h-7zm16.5 1a2.5 2.5 0 0 0 -2.5 2.5v.5a1 1 0 0 0 -1 1v4a1 1 0 0 0 1 1h5a1 1 0 0 0 1-1v-4a1 1 0 0 0 -1-1v-.5a2.5 2.5 0 0 0 -2.5-2.5m0 1a1.5 1.5 0 0 1 1.5 1.5v.5h-3v-.5a1.5 1.5 0 0 1 1.5-1.5z"/></svg>

<?xml version="1.0" encoding="UTF-8"?><!DOCTYPE svg PUBLIC "-//W3C//DTD SVG 1.1//EN" "http://www.w3.org/Graphics/SVG/1.1/DTD/svg11.dtd"><svg xmlns="http://www.w3.org/2000/svg" xmlns:xlink="http://www.w3.org/1999/xlink" version="1.1" id="mdi-trackpad-lock" width="24" height="24" viewBox="0 0 24 24"><path d="M3,1C1.89,1 1,1.89 1,3V17C1,18.11 1.89,19 3,19H14V17H12V13H16.68C17.5,12.35 18.47,12 19.5,12C20,12 20.5,12.09 21,12.26V3C21,1.89 20.11,1 19,1H3M3,3H19V11H3V3M3,13H10V17H3V13M19.5,14A2.5,2.5 0 0,0 17,16.5V17A1,1 0 0,0 16,18V22A1,1 0 0,0 17,23H22A1,1 0 0,0 23,22V18A1,1 0 0,0 22,17V16.5A2.5,2.5 0 0,0 19.5,14M19.5,15A1.5,1.5 0 0,1 21,16.5V17H18V16.5A1.5,1.5 0 0,1 19.5,15Z" /></svg>
